X:1
T:Living in Light
C:T. S. Macdonald
L:1/8
M:C|
K:G
c | B<GG>D B,<DG,>B | c<AA>G F>AD>c | B<GG>D B,>DG>B | (c/B/)A/G/ F>d B<GG>c |
    B<GG>D B,<DG,>B | c<AA>G F>AD>c | B<GG>D B,>DG>B | (c/d/)e/c/ A>f g<GG>f ||
    g<bb>g f<aa>f | g/f/e/d/ c/B/A/G/ F<AA>f | g<bb>g f<aa>f | g/f/e/d/ e/f/g/a/ b<gg>f |
    g<bb>g f<aa>f | g>fe>d c/d/c/B/ A/G/F/E/ | D<GG>D B,>DG>B | (c/d/)e/c/ A>f g<GG |]

